-----BEGIN PGP PUBLIC KEY BLOCK-----

mQINBGqgPqABEACjKex5QwpwvG8dWnyGTlIn6DTe9+FpNsN5P+Jx0rHhs9FusTi3
KvfV5uDGIWy9qj6GIhyqWnrTAJ8KJJx9/z/1FmgWMZbZ1rdCiiY7EGiHFU/y4fNl
1YySVvarQTwmguKP0irJ+YQfluGolkgLd83+ksLqunm+eIWLKyo0IpCZchNP3sN6
4AozKmWSj5CbPU7RNSUITb8U16q/LvTSolB2Cu1TGLNcBZZAJBNAKUuA2+IV/12Q
NW95fSnRGu+axDlsc2YvSJ3BWYZ4mnc2y/kvgHTzOCDn04LOB5pnUM8TZcqoJHMU
45U3rZ31NTA6EYjWy/a1jRpJgBCMY/gkcJfxhcq9dvT1SwHwKOrV9nNvDaCKRxE+
wurfNxN4Ev7H9kaVzH8FuDu7QT+vOZ56sk7AjhUa5eio8asm+7ACnltoZgxmnC/E
+P+/zNaOEBUz0HgceMQcPMVa5fzmqmGMMmgNs1as83ngLreUzNW+JTFJ87I44kOa
epyQja02BOjbRKP+X3XpA50bAMRmqB6BbL1dGVSGe4cLwv0bR+0GiErxz+3D8FI2
9EL0GrCNqRkmswIJB7Nq179c3qs6gIs90Y3k6J9iOx9cP3x8dWQlsx5s7NKthpQp
Lt9APLTYCgOHAiUBJY5pmHad+4hN7UZoQqp58e8Mh8WWKct4LEhIiczFgwARAQAB
tDpZYWd1YXJldGVPUyAoRmlybWEgZGUgcmVwbyBGbGF0cGFrKSA8aDRrMW5ndDFt
M0BnbWFpbC5jb20+iQJYBBMBCgBCFiEE6AnbaQf+7s0G0fs+QKrZuXEs8C0FAmqg
PqADGy8EBQkJZgGABQsJCAcCAiICBhUKCQgLAgQWAgMBAh4HAheAAAoJEECq2blx
LPAtog8P/2Ju7vuv4XszykNek6TiIAUlbaWd6Nl6Zx+TbYDZRFCLigONV2zbV6RR
A2tM2Vw+QHz0cAd+P1sOoUDAoNrJs6TwOiV/W0s4ms3kNHLSqLrTDF70eOFqdVx9
SjMJwgH+xQOj1Flh8RJRXDNlRSHrcBHKK9byzSiD/8CkNxYPHagy8AewsAG4yEHL
13DAizwdzBTB3W17rVPBbyYfDUtlth7AZZliAQfFxKQ6HOIe96kyLb/AiWBJ0Uon
7stxVcLJItrA5nX6RWUAMX0Cc3adyzRas7nMYLZ/2qUQvjHr3r/Tqd3ekOaajg5O
PQvrXHbR42ZenhhgSDqzJSif/fdv6NGO8xrSsmyZCicZgu9uEtdz8y9f9F47OyZ0
XMk5drWZPQnbQuj4cr0yhJRxTWvbVF7V1k2/Kz74krnRq/Ls8ESr6lxmX9A3ZTfg
32b54XRUHjgvXbTqjsYeqJnS/DjfxrNVDFFHUjmPXDG7aRzSNvITQ0KJShFl8DnB
eekxONcDSgCvAeybGZpEE4BKexwLr+YcooqZzlYxJ+Yh3Rm5TTyJynGpIsIFqe1A
WZ/nxFCh4zvKtr4LY9lAornT3a8+8sVG6RUBtiR7I5Q3oI3yjZ4c2zZ5y+Zoghxe
HzRj9Q5M3Pbs5hMj6Owsg3n0EqQfGHg1eG6nskauCHr849Oq5bsjuQINBGqgPqAB
EACWdfVwpOw2gbH4eMu7nITLpTC5sjBaVVmswsbQZCxmeTAHsutSJQ71dq7/9OYp
XK51p85M9Aa9mmzGbornG1A7AMwQXWF+JJH+1BUE2b81oSAjxEZ6/vBep2QWvLg9
gukkg2vM9SdljTJUMpZTiLDiWWeb4SI7SAKqHibVOBTNLOKOYUElsRDtiEtGWWjA
ltJdBMlax5EDUAu2d2TuT0iH4NMtpjLer80J0+Rniv6mPigJ3YOiPtIEK5kIlMjN
6Uc954zHpFdZpjcMjktsqLmAlhT+fI2fGkoq1ziFFsbLFQjrGr3IlxUi99zTVW/u
nbVlgE4lta+Ma3h3E67Y+qUP1au3g/sBGM1NIuxZiI43/1nhCDMeOWj/ozTAXDFU
YHZbgZW/2u4jhCff4bH2iSQv7rGsr8m6LBhoCupM0R4wpy0tEfZkmkU6WYX99Csk
M9dKJDxmGpuft3M9sLgWe0sjwRgCIuoNNRmNq1knW3YyjRPa3foCyZC8pZie8CJ0
rCH+bvlaYiE3nWAl5WlsttFQRoP/sRK3egpn/huqCJmOK3rdDI4o6wHsU0Gh+hOk
vm7YDFbb83VZUYsDc7CE/TymJaPI66rst9+Sk2FK3/ETDfV1upwH0mHgt06dha6n
/y1e5oMvdmQ1qLm4Xzxleg8gfakn2hQTUKafzKs4JCq+4QARAQABiQRyBBgBCgAm
FiEE6AnbaQf+7s0G0fs+QKrZuXEs8C0FAmqgPqACGy4FCQlmAYACQAkQQKrZuXEs
8C3BdCAEGQEKAB0WIQSE02pO/IbQfbcgRaTj1doOcHcyGQUCaqA+oAAKCRDj1doO
cHcyGU54EACIJoB+m8NHzOzjtaXdcThyWuFQ4s7RKr+/ymjzhjlKwjVrpPIv/++7
dqo4IQTCynjHKRpf1XYiI98ix6o2rZWkAqDghf1U2Ie1Xc3cbRVZ08ju24jPHlrj
4iW0N1dlXL11pEY5Fu+stYl4IEk2ZtxsbNq6/zMSZEiLsjX8x2Sm1jfwKwFzcHL1
TpMT5eBkQfJK3qV5vgLYbVuUcyL1SFOpT5mIqCovZUiQQ6vTxYGz6jYO/Kv5auB6
RjZDP3XMUnurZK+FFb9AmiC2NId9ifzv3VqZn+we2JZyRAliSAxWtn9CZPQFaJz6
hK6C0ZLRbkN1344odmTDVrY1eKoscVrvgkOUl0UFP6tRr3CEhcfYJfGGumVq2cXH
MvDwElNDtjwnVLz+bm1P7hbMRo8PZQHZq3WEzaHbTq0DIDZL/Dm1fWbKkNUT/U2Q
TZgjnA8zqBSqlUBDZvkUBMJgFQFZ3nr2QLXpgTDtIAHdws4lIFJYoN16uYvg91gX
5Kd/TRYiuoxgiiRATdIiD9YA/+Lo08ieqsNXgkuMAaxtJpmsWlOT4jlIpcBoXu4/
cqPOs8UCSQ5snH81szoUW/lom9LuJZJFIUUEZt0Kpci7lxovdAYg1ELhIKCXBdB/
vxlxbTzPIPlU1+GySN4NuskQVlw8HUbQeurLeHPuEy/gHOv4uOQxcfG2D/95wNrw
xPlx31koYE1ECIAvAF+fdzrsHB8gdl+ASVgGSvGdeNuSHnFch5ldIIYBPAaNO0mj
GPp7lO3qPW5PWOUWozsBohlGS5+kWeJY8Kf2yMc6XEYQJtWkc682OoyX3PrVEYGz
CucIVj9Rd3JH7j1f3oSjZ+aDtNeUwtfHYapr9PCDH2vQqVzS0kvgYmbX38c23Bcs
pOoQqjjzN3aPZGiANf/VmACxjlAuLuSVzhUnwrsuTRZcnhE74L7iOgocx4KzK4ZM
4N1qdL4xxAzFEd5n1/UjVRLYLmVhUL8SIxhBFHVuzgqtdQvqY2otmQgpxjBtAUnC
iZ0P794xIObpPNGUKrmCOLgtuPRajgg/5uqIYB3AcoYuW+uYlKrwZWEC9C7ystOX
I731uD4i5s5jNtpewvYX/MIbxcEaD1Lpt70YanY32KemlfKJM9X0g98uvHNtWo/I
zKVhKTKCvDmfEG/Jtma4aUUTTZFvB6ZuybgOJf5SVCFOrqUMLvd9xMz8De7xoDLa
tzsoLZO3gn71cX2KZvJpEl6d3WKNbU4iWYRr8p3jE47+ztZrEYm2iGGeXMxh56Qy
kgH0j/CO8WgdFl/PB8Ufx6PpKYqKct++UvTWZVkBpYTqDyVeis4DvQ6mRLzTzYRN
3XFKh+sBfAor/9CMWRxXaJjgWSchJBXPMNd4uA==
=3977
-----END PGP PUBLIC KEY BLOCK-----
